!!!!SEGMENT: pl-wumfc--n53446--001-024_moniuszko-stanislaw--hrabina-no-19b-duettino.krn
!!!cenid: 18xx:4111
!!!COM: Moniuszko, Stanisław
!!!COM-rismID: pe30008351
!!!CDT: 1819/05/05-1872/06/04
!!!CNT: Polish
!!!OPR: Hrabina
!!!OTL: No. 19b. Duettino
!!!OMV: 024
!!!PDT:
!!!AGN: Secular; Opera
!!!YEC: Copyright 2022 Narodowy Instytut Fryderyka Chopina (https://polishscores.org)
!!!YEM: License CC-BY-4.0 (https://creativecommons.org/licenses/by/4.0)
!!!SMS-siglum: PL-Wumfc
!!!SMS-shelfmark: N53446
!!!SMS-shelfwork: 001-024 M
!!!SMS-variant:
!!!SMS-altvar:
!!!NIFC-rismSourceID: 1001165649
!!!NIFC-rismChildID: 1001165649
!!!NIFC-islandoraID: pl-wumfc:6884
!!!URL-pdf-islandora: https://repozytorium.nifc.pl/islandora/object/pl-wumfc%3A6884/datastream/PDF/view
!!!URL-scan: https://polish.musicsources.pl/pl/lokalizacje/galeria/druki-muzyczne/12579 @EN{Scan on Polish Music Sources Website} @PL{Skany w portalu Dziedzictwo Muzyki Polskiej w otwartym dostępie}
!!!IIIF:
!!!ONB-nifc:
!!!AIN: 1 piano
!!!key: D-
**kern	**kern	**text	**dynam
*part1	*part1	*	*
*staff2	*staff1	*	*
*I"[Piano.]	*I"[Piano.]	*	*
*Ipiano	*Ipiano	*	*
*ICklav	*ICklav	*	*
*clefF4	*clefG2	*	*
*k[]	*k[]	*	*
*D-:	*D-:	*	*
*M4/4	*M4/4	*	*
*met(c)	*met(c)	*	*
=1	=1	=1	=1
*	*tremolo	*	*
!!LO:TX:B:a:t=Allegro.
!	!LO:TX:t=P:problem:cały tekst zapisany ponad pięciolinią	!	!
8GG/L	16bb-XLL 16ee 16dd-X\	.	ff
.	16b-X\	.	.
8BB-X/	16bb- 16ee 16dd-\	.	.
.	16b-X\	.	.
8D-X/	16bb- 16ee 16dd-\	.	.
.	16b-X\	.	.
8E-X/J	16bb- 16ee 16dd-\	.	.
.	16b-X\JJ	.	.
8En\L	16bb-LL 16ee 16dd-\	.	.
.	16b-\	.	.
8Gn\	16bb- 16ee 16dd-\	.	.
.	16b-\	.	.
8B-X\	16bb- 16ee 16dd-\	.	.
.	16b-\	.	.
8d-X\J	16bb- 16ee 16dd-\	.	.
.	16b-\JJ	.	.
=2	=2	=2	=2
8e\L	16bb-XLL 16ee 16dd-X\	.	.
.	16b-X\	.	.
8d-X\	16bb- 16ee 16dd-\	.	.
.	16b-X\	.	.
8B-X\	16bb- 16ee 16dd-\	.	.
.	16b-X\	.	.
8G\J	16bb- 16ee 16dd-\	.	.
.	16b-X\JJ	.	.
8E/L	16bb-LL 16ee 16dd-\	.	.
.	16b-\	.	.
8D-X/	16bb- 16ee 16dd-\	.	.
.	16b-\	.	.
8BB-X/	16bb- 16ee 16dd-\	.	.
.	16b-\	.	.
8AA-X/J	16bb- 16ee 16dd-\	.	.
.	16b-\JJ	.	.
*	*Xtremolo	*	*
=3	=3	=3	=3
8GG/	8bb-X 8ee 8dd-X\	.	.
8r	8r	.	.
4r	4r	.	.
2r	8r	.	.
!	!LO:TX:B:a:t=Più lento.	!	!
.	8dd-\	.	p
.	8qee-X/	.	.
!	!LO:TUP:a:problem:klamra łukowa	!	!
.	12dd-\L	.	.
.	12cc\	.	.
.	12dd-\J	.	.
!!LO:LB:g=original
=4	=4	=4	=4
*	*^	*	*
8.r	[2f/	8.r	.	.
16AA-X/	.	16d-X 16A-X\	.	.
8AA-/	.	8d- 8A-\	.	.
8r	.	8r	.	.
2r	8f/L]	2rG	.	.
.	8a-X/J	.	.	.
.	12a-/L	.	.	.
.	12g/	.	.	.
.	12a-/J	.	.	.
=5	=5	=5	=5	=5
8.r	[2c/	8.r	.	.
16AA-X\KL	.	16A-X<KL 16G-X</	.	.
8AA-\	.	8A-< 8G-</	.	.
16r	.	16rF<	.	.
16AA-\Jk	.	16A-<Jk 16G-</	.	.
8AA-\	24c/LL]	8A-< 8G-</	.	.
.	24d-X/	.	.	.
.	24e-X/	.	.	.
8r	24f/	8ryy	.	.
.	24g-X/	.	.	.
.	24a-X/JJ	.	.	.
4r	8.b--/L	4ryy	.	.
.	16a-/Jk	.	.	.
*	*v	*v	*	*
=6||	=6||	=6||	=6||
*k[b-e-a-d-g-]	*k[b-e-a-d-g-]	*	*
8D- 8DD-\	8d- 8F</	.	.
8r	8r	.	.
8D- 8DD-\	8f 8d- 8A-</	.	.
8r	8r	.	.
8D- 8DD-\	8d- 8F</	Hra:Ah!	.
8r	8f/L	quel-	.
4r	8g-/	-le	.
.	8gn/J	sur-	.
!!LO:LB:g=original
=7	=7	=7	=7
*	*^	*	*
8r	4a-/	8r	-pri-	.
8D-/L	.	8fL 8d-\	.	.
8C/	4a-/	8e- 8c\	-se!	.
8BB-/J	.	8d-J 8B-\	.	.
8AA-/	8r	8e- 8c 8A-\	.	.
8r	8a-/L	8r	Co	.
4r	8b-/	4r	za	.
.	8cc/J	.	spot-	.
=8	=8	=8	=8	=8
8r	4dd-/	8r	-ka-	.
8B-L 8BB-\	.	8dd-L 8d-\	.	.
8A- 8AA-\	4dd-/	8cc 8d-\	-nie!	.
8G-J 8GG-\	.	8b-J 8d-\	.	.
8F 8FF/	8r	8a- 8d-\	.	.
8r	8dd-/L	8r	i	.
4r	8cc/	4r	cóż	.
.	8dd-/J	.	wy-	.
=9	=9	=9	=9	=9
8A- 8F 8D- 8AA-\	8dd- 8a- 8f\	4ff/	-rów-	.
8r	8r	.	.	.
4r	16dd-/LL	4r	-na	.
.	16a-/	.	.	.
.	16f/	.	ra-	.
.	16b-/JJ	.	.	.
4r	4.a-/	4r	-doś-	.
4A- 4G- 4AA-\	.	4c</	.	.
.	8a-/	.	-ci	.
*	*v	*v	*	*
=10	=10	=10	=10
8D-\L	4d-/	mej.	.
8A-\	.	.	.
8F\	4r	.	.
8A-\J	.	.	.
!	!LO:TX:B:a:t=con anima	!	!
8d-\L	8f/L	.	<
8c\	8g- 8e-/	Pięk-	.
8B-\	8gn 8en/	-ny	.
8A-\J	8a-J 8f/	ry-	[
!!LO:LB:g=original
=11	=11	=11	=11
8AA-/	4.ff 4.a-\	-ce-	f >
8A-\L	.	.	.
8c\	.	.	.
8A-\J	8ee-X 8g-X\	-rzu	]
8d-L 8D-\	8dd-L 8f/	na	.
8A-\	8a-/J	.	.
8F\	8.f/L	po-	.
8D-\J	.	.	.
.	16b-/Jk	-wi-	.
=12	=12	=12	=12
*	*^	*	*
2A- 2C\	4b-/	8r	-ta-	.
.	.	8e-\L	.	.
.	4a-/	8g-\	-nie	.
.	.	8e-\J	.	.
2C-X/	4a-/	8r	na	.
.	.	8d-\L	.	.
.	8.gn/L	8f\	przód	.
.	.	8d-\J	.	.
.	16a-/Jk	.	u-	.
=13	=13	=13	=13	=13
*^	*	*	*	*
8BB-\L	2ryy	4dd-/	2ryy	-ra-	.
8d- 8G-X\	.	.	.	.	.
8GG-\	.	16ccn/LL	.	-zę	.
.	.	16b-/	.	.	.
8e-J 8B- 8G-\	.	16a-/	.	da-	.
.	.	16g-/JJ	.	.	.
8r	8AA-\	4.f/	4d-\	-ro-	.
8A-/L	8r	.	.	.	.
8G-/	8AA-\	.	4c\	.	.
8A-/J	8r	8e-/	.	-wać	.
*v	*v	*	*	*	*
=14	=14	=14	=14	=14
8D-\L	4d-/	8d-\L	chciej.	.
8G-\	.	8B--\	.	.
8F 8D-\	4r	8A-\	.	.
8G-\J	.	8B--\J	.	.
!	!LO:TX:B:a:t=più lento	!	!	!
8F 8D-\	8d-/L	8A-\	Jam	.
8r	8dn/	8ryy	.	.
4r	8d#X/	4r	tak-	.
.	8en/J	.	-ży-	.
*	*v	*v	*	*
*kcancel	*kcancel	*	*
!!LO:LB:g=original
=15||	=15||	=15||	=15||
*k[f#c#g#]	*k[f#c#g#]	*	*
*	*^	*	*
8r	4.a/	8r	-woś-	.
8F#\L	.	8aL 8A\	.	.
8E\	.	8g# 8A\	.	.
8D\J	8a/	8f#J 8A\	-ci	.
8C#/	8a/L	8A\	mej	.
8r	16g#/L	8r	.	.
.	16a/JJ	.	.	.
4r	8b/L	4r	ża-	.
.	8cc#/J	.	-ło-	.
=16	=16	=16	=16	=16
8r	4.ee/	8r	-wa-	.
8BB\L	.	8cc#L 8f#\	.	.
8D\	.	8cc# 8f#\	.	.
8F#\J	8dd/	8bJ 8f#\	-ła	.
8B\	8cc#/L	8b 8f#\	kil-	<
8r	8dd/	8r	.	.
4r	8ee/	4r	-ka	.
.	8ff#/J	.	nie-	[
=17	=17	=17	=17	=17
8.r	4.gg#/	8.r	-bacz-	f
16e 16B 16E\	.	16dd 16g#\	.	.
4e 4B 4E\	.	4dd 4g#\	.	.
.	8ff#/	.	-nych	.
2r	8.ff#/L	2re	u-	.
.	16ee/K	.	-nie-	.
.	8.ee/	.	-sień	.
.	16dd/Jk	.	.	.
=18	=18	=18	=18	=18
4A\	2cc# 2a/	8c#\L	słów	.
.	.	8e\	.	.
4F#\	.	8f#\	.	.
.	.	8c#\J	.	.
=-	=-	=-	=-	=-
*k[b-e-a-d-g-]	*k[b-e-a-d-g-]	*k[b-e-a-d-g-]	*	*
8d-L 8D-\	8f/L	8f\L	.	p
8c\	8g-/	8e-\	.	.
8B-\	8.gn/	8en\	.	.
8A-\J	.	8f\J	.	.
.	16a-/Jk	.	.	.
*	*v	*v	*	*
!!LO:PB:g=original
=19	=19	=19	=19
8AA-/	4.ff 4.a-\	.	.
8A-\L	.	.	.
8c\	.	.	.
8A-\J	8ee-X 8g-X\	.	.
8d-L 8D-\	8dd-L 8f/	.	.
8A-\	8a-/	.	.
8F\	8.f/	.	.
8D-\J	.	.	.
.	16b-/Jk	.	.
=20	=20	=20	=20
*	*^	*	*
2A- 2C\	4b-/	8r	.	.
.	.	8e-\L	.	.
.	4a-/	8g-\	.	.
.	.	8e-\J	.	.
2C-X/	4a-/	8r	.	.
.	.	8d-\L	.	.
.	8.gn/L	8f\	.	.
.	.	8d-\J	.	.
.	16a-/Jk	.	.	.
=21	=21	=21	=21	=21
2BB--/	4dd-^/	8r	.	.
.	.	4g-X 4d-\	.	.
.	8.cc/L	.	.	.
.	.	8g- 8d-\	.	.
.	16dd-/Jk	.	.	.
4AA-/	4ee-^/	8r	.	.
.	.	8g- 8c\	.	.
4G- 4GG-/	8.cc/L	8r	.	.
.	.	8e- 8c\	.	.
.	16a-/Jk	.	.	.
*	*v	*v	*	*
=22	=22	=22	=22
8FL 8FF\	[2aa- 2dd- 2a-\	.	f
8A-\	.	.	.
8d-\	.	.	.
8c\J	.	.	.
2B- 2G-\	8aa-]L 8dd- 8b-\	.	.
.	8ggn\	.	.
.	8gg-X\	.	.
.	8ee-\J	.	.
!!LO:LB:g=original
=23	=23	=23	=23
*	*^	*	*
8A- 8AA-\	4cc/	8g- 8e-\	.	<
8r	.	8r	.	.
.	16qqdd-/LL	.	.	.
.	16qqcc/JJ	.	.	.
4r	8bn/L	4r	.	.
.	8cc/J	.	.	[
8AA-\L	4.ff/	4r	.	>
8A-\	.	.	.	.
8c\	.	4a- 4g-\	.	.
8A-\J	8ee-/	.	.	]]
*	*v	*v	*	*
=24	=24	=24	=24
4d- 4D-\	4dd- 4a- 4f/	.	.
8A- 8D-\	8dd- 8f 8d-/	.	.
8r	8r	.	.
8D- 8DD-\	8d- 8A-< 8F</	Kaz:	.
8r	8f/L	Mi-	.
4r	8g-/	-ło	.
.	8gn/J	mi	.
=25	=25	=25	=25
*	*^	*	*
8r	4a-/	8r	bar-	.
8D-/L	.	8fL 8d-\	.	.
8C/	4a-/	8e- 8c\	-dzo	.
8BB-/J	.	8d-J 8B-\	.	.
8AA-/	8r	8e- 8c 8A-\	.	.
8r	8a-/L	8r	że	.
4r	8b-/	4r	wi-	.
.	8cc/J	.	-dzę	.
=26	=26	=26	=26	=26
8r	4dd-/	8r	Pa-	.
8B-L 8BB-\	.	8dd-L 8d-\	.	.
8A- 8AA-\	4dd-/	8cc 8d-\	-nię,	.
8G-J 8GG-\	.	8b-J 8d-\	.	.
8F 8FF/	8r	8a- 8d-\	.	.
8r	8dd-/L	8r	u	.
4r	8cc/	4r	ra-	.
.	8dd-/J	.	-zy	.
=27	=27	=27	=27	=27
8A- 8F 8D- 8AA-\	4ff/	8dd- 8a- 8f\	nie	.
8r	.	8r	.	.
4r	16dd-/LL	4r	znam,	.
.	16a-/	.	.	.
.	16f/	.	za-	.
.	16b-/JJ	.	.	.
4r	4.a-/	4r	-wie-	.
4G- 4AA-\	.	4c 4A-\	.	.
.	8a-/	.	-rzyć	.
*	*v	*v	*	*
!!LO:LB:g=original
=28	=28	=28	=28
8D-\L	4d-/	chciej,	.
8A-\	.	.	.
8F\	4r	.	.
8A-\J	.	.	.
8d-\L	8f/L	Lecz	<
8c\	8g- 8e-/	.	.
8B-\	8gn 8en/	mnie	.
8A-\J	8a-J 8f/	nad-	[[
=29	=29	=29	=29
8AA-/	4.ff 4.a-\	-zwy-	f >
8A-\L	.	.	.
8c\	.	.	.
8A-\J	8ee-X 8g-X\	-czaj	]
8d-L 8D-\	8dd-L 8f/	dzi-	.
8A-\	8a-/	.	.
8F\	8.f/	-wi	.
8D-\J	.	.	.
.	16b-/Jk	spot-	.
=30	=30	=30	=30
*	*^	*	*
2A- 2C\	4b-/	8r	-ka-	.
.	.	8e-\L	.	.
.	4a-/	8g-\	-nie	.
.	.	8e-\J	.	.
2C-X/	4a-/	8r	pa-	.
.	.	8d-\L	.	.
.	8.gn/L	8f\	-ni	.
.	.	8d-\J	.	.
.	16a-/Jk	.	hra-	.
=31	=31	=31	=31	=31
4BB-/	4dd-/	8r	-bi-	.
.	.	8g-X 8d-\	.	.
4GG-/	8.d-/L	8r	-ny	.
.	.	8B-\	.	.
.	16e-/Jk	.	w u-	.
8AA-/	4.f/	8d-\L	-stro-	.
8r	.	8A-\	.	.
4AA-/	.	8c\	.	.
.	8e-/	8G-\J	-ni	.
=32	=32	=32	=32	=32
8D-\L	4d-/	8d-\L	tej.	.
8G-\	.	8B--\	.	.
8F 8D-\	4r	8A-\	.	.
8G-\J	.	8B--\J	.	.
8F 8D-\	8d-/L	8A-\	Po	.
8r	8dn/	8r	.	.
4r	8d#X/	4r	la-	.
.	8en/J	.	-tach	.
*	*v	*v	*	*
!!LO:LB:g=original
=33||	=33||	=33||	=33||
*k[f#c#g#]	*k[f#c#g#]	*	*
*	*^	*	*
8r	4.a/	8r	ty-	.
8F#\L	.	8aL 8A\	.	.
8E\	.	8g# 8A\	.	.
8D\J	8a/	8f#J 8A\	-lu	.
8C#/	8aSSs/L	8e 8A\	ta	.
8r	16g#/L	8r	.	.
.	16a/JJ	.	.	.
4r	8b/L	4r	spra-	.
.	8cc#/J	.	-wa	.
=34	=34	=34	=34	=34
8r	4.ee/	8r	ca-	.
8BB\L	.	8cc#L 8f#\	.	.
8D\	.	8cc# 8f#\	.	.
8F#\J	8dd/	8bJ 8f#\	-ła	.
8B\	8cc#/L	8b 8f#\	kie-	<
8r	8dd/	8r	.	.
4r	8ee/	4r	-dy	.
.	8ff#/J	.	ją	[
=35	=35	=35	=35	=35
8.r;	4.gg#;/	8.r	wpo-	.
16e 16B 16E\	.	16dd 16g#\	.	f
4e 4B 4E\	.	4dd 4g#\	.	.
.	8ff#/	.	-mnieć	.
2r	8.ff#/L	2rg	to	.
.	16ee/K	.	.	.
.	8.ee/	.	tyl-	.
.	16dd/Jk	.	-ko	.
=36	=36	=36	=36	=36
4A\	2cc# 2a/	8c#\L	śmiech!	.
.	.	8e\	.	.
4F#\	.	8f#\	.	.
.	.	8c#\J	.	.
=-	=-	=-	=-	=-
*k[b-e-a-d-g-]	*k[b-e-a-d-g-]	*k[b-e-a-d-g-]	*	*
8d-\L	8f/L	8f\L	.	.
8c\	8g-/	8e-\	.	.
8B-\	8.gn/	8en\	.	.
8A-\J	.	8f\J	.	.
!	!LO:N:vis=8	!	!	!
.	16a-/Jk	.	.	.
*	*v	*v	*	*
=37	=37	=37	=37
8AA-/	4.ff 4.a-\	.	.
8A-\L	.	.	.
8c\	.	.	.
8A-\J	8ee-X 8g-X\	.	.
8d-L 8D-\	8dd-L 8f/	.	.
8A-\	8a-/	.	.
8F\	8.f/	.	.
8D-\J	.	.	.
.	16b-/Jk	.	.
!!LO:LB:g=original
=38	=38	=38	=38
*	*^	*	*
2A- 2C\	4b-/	8r	.	.
.	.	8e-\L	.	.
.	4a-/	8g-\	.	.
.	.	8e-\J	.	.
2C-X/	4a-/	8r	.	.
.	.	8d-\L	.	.
.	8.a-/L	8f\	.	.
.	.	8d-\J	.	.
.	16a-/Jk	.	.	.
=39	=39	=39	=39	=39
2BB--/	4dd-^/	8r	.	.
.	.	4g- 4d-\	.	.
.	8.cc/L	.	.	.
.	.	8g- 8d-\	.	.
.	16dd-/Jk	.	.	.
4AA-/	4ee-^/	8r	.	.
.	.	8g- 8c\	.	.
4G- 4GG-/	8cc/L	8r	.	.
.	8a-/J	8e- 8c\	.	.
*	*v	*v	*	*
=40	=40	=40	=40
8FL 8FF\	[2aa- 2dd- 2a-\	.	f
8A-\	.	.	.
8d-\	.	.	.
8c\J	.	.	.
2B- 2G-\	8aa-]L 8dd- 8b-\	.	.
.	8ggn\	.	.
.	8gg-X\	.	.
.	8ee-\J	.	.
=41	=41	=41	=41
*	*^	*	*
8A- 8AA-\	4cc/	8g- 8e-\	.	<
8r	.	8r	.	.
.	(16qqdd-/LL	.	.	.
.	16qqcc/JJ)	.	.	.
4r	8b-/L	4r	.	.
.	8cc/J	.	.	[[
8AA-\L	4.ff/	4r	.	>
8A-\	.	.	.	.
8c\	.	4a- 4g-\	.	.
8A-\J	8ee-/	.	.	]]
*	*v	*v	*	*
=42	=42	=42	=42
4d- 4D-\	4dd- 4a- 4f/	.	.
8A- 8D-\	8dd- 8f 8d-/	.	.
8r	8r	.	.
4D- 4DD-\	4d- 4A-< 4F</	.	.
4r	4r	.	.
==	==	==	==
*-	*-	*-	*-
!!!system-decoration: {(p1)}
!!!RDF**kern: > = above
!!!RDF**kern: < = below
!!!ENC: Berenika Jozajtis
!!!END: 2022-08-23
!!!ENC: Kamil Watkowski
!!!END: 2022-09-29
